X:1346
T:Johnny's Welcome Home
R:Reel
N:Collected by McFadden
B:O'Neill's 1346
M:C|
L:1/8
K:A
AE F3EDE cE F3EDE|GFEF GFED|3EFG AB cded|cBcde2fg|
abaf gbge|dBGB ABcd|3efg ed cABG|AGEG"H"A2ea||
bagea bagea|bagefg2fg|agbg aged|dcBcde2fg|
abaf gbge|dBGB ABcd|3efg ed cABG|AGEG Ad"D.C."cB|]
